X: 0882
T: THE POLKA DANCE No. 2
C: Muller
B: Oliver Ditson "The Boston Collection of Instrumental Music" 1910 p.88 #2
F: http://conquest.imslp.info/files/imglnks/usimg/8/8f/IMSLP175643-PMLP309456-bostoncollection00bost_bw.pdf
%: 2012 John Chambers <jc:trillian.mit.edu>
M: 2/4
L: 1/16
K: C
(c2 |\
B2)GG G2(d2 | c2)GG G2e2 | f<a "^>"a4 B2 | c2{a}g^f g2(c2 |\
B2)GG G2(d2 | c2)GG G2e2 | f<d' "_>"d'4 B2 | dc{d}cB c2 H:|
|: z2 |\
d'f' "_>"f'4 b2 | c'<e'a2 a<c'^f2 | a<c' "_>"c'4 ^f2 | g<bd2 d<bB2 |\
d2 "_>"b4 g2 | e<gc2 c<eA2 | ^F<e "_>"e4 ^F2 | G2G2G2 "^Da Capo":|
K: F
!p!Acfg a2f2 | d'c'fg a2f2 | cega b2g2 | e'2d'2 Td'2c'2 |\
Acfg a2f2 | d'c'fg a2f2 | cega b<d'g2 | g<be2 e<gB2 |
!f!Acfg a2f2 | d'c'fg a2f2 | cega b2g2 | e'2d'2 Td'2c'2 |\
Acfg a2f2 | d'c'fg a2f2 | egbd' c'2e2 | faca f2 "^Da Capo"|]

%%sep 1 1 500
%%sep 1 1 500
